X: 11382
T: Earl's Lane
R: jig
M: 6/8
K: Bminor
|:FBB Bcd|cBA BAF|ABA Ac/B/A|ece a^ga|
b2f aef|ecf ece|f/g/af edc|1 B/c/dB cAE:|2 ~B3 BA/B/c||
d2f gfd|ecA AFD|GBd dcd|cde gfe|
faa gab|agf efg|fgf edc|B/c/dB cde|
dfd gfd|ecA AFD|GBd dcd|cde gfe|
faa gab|agf efg|a2a gab|aed cAE||

